!!!OTL: No_33_Death_Song_of_Name'binês'.krn
!!!REG: Great_Lakes
!!!LANG: Non-Tone
!!!LING_GROUP: Algonquin
!!!SOCIAL_FUNCTION: songs of war
**kern	**kern
*staff2	*staff1
*clefF4	*clefF4
*k[]	*k[]
*M2/4	*M2/4
8r	8e\
=1	=1
8GG/L	8e\L
8GG/J	24e\K
.	12e\J
8GG/L	[12c\L
.	12c\]
8GG/J	.
.	12c\J
=2	=2
8GG/L	8c\L
8GG/J	24c\K
.	12c\J
8GG/L	(12A\L
.	12A\)
8GG/J	.
.	12e\J
=3	=3
2r	8e\L
.	24e\K
.	12e\J
.	[12c\L
.	12c\]
.	12c\J
=4	=4
2r	8c\L
.	24c\K
.	12c\J
.	[12G\L
.	12G\]
.	12G\J
=5	=5
2r	8A\L
.	24A\K
.	12A\J
.	4E\
=6	=6
2r	8A\L
.	8A\J
.	8G\L
.	8G\J
=7	=7
2r	8E\L
.	8E\J
.	16C/LL
.	16C/
.	16C/
.	16C/JJ
=8	=8
2r	4C/
.	[4C/
=9	=9
2r	4C/]
.	8C/
.	8r
==	==
*-	*-
